docs/img/Vector.svg

<svg width="16" height="16" viewBox="0 0 16 16" fill="none" xmlns="http://www.w3.org/2000/svg">
<path fill-rule="evenodd" clip-rule="evenodd" d="M1.88541 0.510194C2.06038 0.335474 2.27048 0.199938 2.50179 0.112565C2.7331 0.0251932 2.98033 -0.0120195 3.22711 0.00339337C3.47389 0.0188063 3.71457 0.0864929 3.93321 0.201968C4.15185 0.317442 4.34346 0.478068 4.49533 0.673201L6.29027 2.97931C6.61926 3.40233 6.73526 3.95335 6.60526 4.47338L6.05828 6.66348C6.03 6.77691 6.03153 6.89573 6.06272 7.0084C6.0939 7.12107 6.15369 7.22376 6.23628 7.30651L8.6932 9.76362C8.77603 9.84638 8.87889 9.90627 8.99174 9.93746C9.1046 9.96866 9.2236 9.97009 9.33718 9.94163L11.5261 9.3946C11.7827 9.33044 12.0506 9.32545 12.3094 9.38003C12.5682 9.4346 12.8112 9.5473 13.0201 9.70962L15.326 11.5037C16.155 12.1487 16.231 13.3738 15.489 14.1148L14.455 15.1489C13.715 15.8889 12.6091 16.2139 11.5781 15.8509C8.93937 14.9224 6.54354 13.4116 4.56833 11.4307C2.58768 9.45562 1.07705 7.05995 0.148466 4.42137C-0.213522 3.39133 0.111467 2.28428 0.851444 1.54424L1.88541 0.510194Z" fill="#008139"/>
</svg>

<svg width="16" height="16" fill="none" xmlns="http://www.w3.org/2000/svg"><path fill-rule="evenodd" clip-rule="evenodd" d="M1.885.51a1.745 1.745 0 0 1 2.61.163L6.29 2.98c.33.423.445.974.315 1.494l-.547 2.19a.678.678 0 0 0 .178.644l2.457 2.457a.678.678 0 0 0 .644.178l2.19-.547a1.745 1.745 0 0 1 1.493.315l2.306 1.794c.829.645.905 1.87.163 2.61l-1.034 1.035c-.74.74-1.846 1.065-2.877.702a18.633 18.633 0 0 1-7.01-4.42 18.635 18.635 0 0 1-4.42-7.01c-.362-1.03-.037-2.137.703-2.877L1.885.51z" fill="#008139"/></svg>
